editor/icons/icon_animation_track_group.svg

<svg height="16" viewBox="0 0 16 16" width="16" xmlns="http://www.w3.org/2000/svg"><g fill="#e0e0e0"><path d="m5.0508475 2v2h8.9491525v-2zm-3.322034-.016949v2h2v-2zm7.2542373 5.016949v2h5.0169492v-2zm-3.5254237 5v2h2v-2zm3.5254237 0v2h5.0169492v-2z"/><path d="m5.4915255 6.9322039v1.999999h2v-1.999999z"/></g></svg>

<?xml version="1.0" encoding="UTF-8" standalone="no"?>
<svg
   xmlns:dc="http://purl.org/dc/elements/1.1/"
   xmlns:cc="http://creativecommons.org/ns#"
   xmlns:rdf="http://www.w3.org/1999/02/22-rdf-syntax-ns#"
   xmlns:svg="http://www.w3.org/2000/svg"
   xmlns="http://www.w3.org/2000/svg"
   xmlns:sodipodi="http://sodipodi.sourceforge.net/DTD/sodipodi-0.dtd"
   xmlns:inkscape="http://www.inkscape.org/namespaces/inkscape"
   width="16"
   height="16"
   version="1.1"
   viewBox="0 0 16 16"
   id="svg6"
   sodipodi:docname="icon_animation_track_group.svg"
   inkscape:version="0.92.3 (2405546, 2018-03-11)">
  <metadata
     id="metadata12">
    <rdf:RDF>
      <cc:Work
         rdf:about="">
        <dc:format>image/svg+xml</dc:format>
        <dc:type
           rdf:resource="http://purl.org/dc/dcmitype/StillImage" />
        <dc:title></dc:title>
      </cc:Work>
    </rdf:RDF>
  </metadata>
  <defs
     id="defs10" />
  <sodipodi:namedview
     pagecolor="#ffffff"
     bordercolor="#666666"
     borderopacity="1"
     objecttolerance="10"
     gridtolerance="10"
     guidetolerance="10"
     inkscape:pageopacity="0"
     inkscape:pageshadow="2"
     inkscape:window-width="1089"
     inkscape:window-height="480"
     id="namedview8"
     showgrid="false"
     inkscape:zoom="10.429825"
     inkscape:cx="6.2135985"
     inkscape:cy="6.5622523"
     inkscape:window-x="67"
     inkscape:window-y="27"
     inkscape:window-maximized="0"
     inkscape:current-layer="svg6" />
  <path
     style="fill:#e0e0e0"
     inkscape:connector-curvature="0"
     id="path2"
     d="M 5.0508475,2 V 4 H 14 V 2 Z m -3.322034,-0.016949 v 2 h 2 v -2 z M 8.9830508,7 V 9 H 14 V 7 Z m -3.5254237,5 v 2 h 2 v -2 z m 3.5254237,0 v 2 H 14 v -2 z"
     sodipodi:nodetypes="ccccccccccccccccccccccccc" />
  <path
     style="fill:#e0e0e0"
     inkscape:connector-curvature="0"
     id="path2-3"
     d="m 5.4915255,6.9322039 v 1.999999 h 2 v -1.999999 z"
     sodipodi:nodetypes="ccccc" />
</svg>
